X:1
T: Aspinwall Hornpipe
C:
R:Reel
I:speed 232
Q:232
K:G
M:4/4
L:1/8
|:dc|BG ((3GFG) DG ((3GFG)|BG dB gd Bd|cA ((3A^GA) FA ((3AGA)|ce dc Bc Ac|
BG ((3GFG) DG ((3GFG)|BG dB gd Bd|ce dc Bc AB|G2B2 G2:|
|:dc|Bd ((3d^cd) Bd ((3dcd)|Bd ef gd cB|ce ((3e^de) ce ((3ede)|ce dc Bc Ac|
Bd ((3d^cd) Bd ((3dcd)|Bd ef gd cB|ce dc Bc AB|G2B2 G2:|
